Adwaita++-Light/panel/16/si-syncthing-9.svg

<svg height="16" width="16" xmlns="http://www.w3.org/2000/svg">
  <path d="m1.9378222 11.5a7 7 0 0 0 9.5621778 2.562178 7 7 0 0 0 2.562178-9.5621779 7 7 0 0 0 -9.5621778-2.5621779 7 7 0 0 0 -2.562178 9.5621778zm1.732051-1a5 5 0 0 1 1.059052-6.2789485 1.5 1.5 0 0 1 .704088-1.6672032 1.5 1.5 0 0 1 2.0065918.4833327 5 5 0 0 1 3.530503.9431362 1.5 1.5 0 0 1 1.976045.5866712 1.5 1.5 0 0 1 -.225537 1.7968602 5 5 0 0 1 -2.220616 5.9662784 5 5 0 0 1 -.075426.041242 1.5 1.5 0 0 1 -.7236375 1.574747 1.5 1.5 0 0 1 -2.0490384-.549038 1.5 1.5 0 0 1 -.164952-.430244 5 5 0 0 1 -3.8170732-2.46683zm.866025-.5a4 4 0 0 0 3.073601 1.975979 1.5 1.5 0 0 1 .591463-.627903 1.5 1.5 0 0 1 .054382-.02689l-.3647314-2.5340879a1.5 1.5 0 0 1 -1.006638-.7201106 1.5 1.5 0 0 1 .1599707-1.7229226l-.5878907-1.0182567a1.5 1.5 0 0 1 -1.1596626-.2664065 4 4 0 0 0 -.760494 4.9405983zm4.7084407 1.178696a1.5 1.5 0 0 1 .6759022.326943 4 4 0 0 0 .0797589-.041537 4 4 0 0 0 1.814361-4.6582165 1.5 1.5 0 0 1 -1.140169-.3498309l-1.0182565.587891a1.5 1.5 0 0 1 -.7229226 1.57208 1.5 1.5 0 0 1 -.054391.026888zm-1.3343679-5.3346308a1.5 1.5 0 0 1 1.2459643.3338551l1.0182567-.5878912a1.5 1.5 0 0 1 .102462-.8733099 4 4 0 0 0 -2.6039854-.6977362 1.5 1.5 0 0 1 -.350592.8068232l.5878943 1.0182589z" fill="#444"/>
</svg>

<svg xmlns="http://www.w3.org/2000/svg" width="16" height="16" version="1.1">
 <defs>
  <style id="current-color-scheme" type="text/css">
   .ColorScheme-Text { color:#444444; } .ColorScheme-Highlight { color:#4285f4; }
  </style>
 </defs>
 <path style="fill:currentColor" class="ColorScheme-Text" d="M 1.9378222,11.5 A 7,7 0 0 0 11.5,14.062178 7,7 0 0 0 14.062178,4.5000001 7,7 0 0 0 4.5000002,1.9378222 7,7 0 0 0 1.9378222,11.5 Z m 1.732051,-1 A 5,5 0 0 1 4.7289252,4.2210515 1.5,1.5 0 0 1 5.4330132,2.5538483 1.5,1.5 0 0 1 7.439605,3.037181 5,5 0 0 1 10.970108,3.9803172 1.5,1.5 0 0 1 12.946153,4.5669884 1.5,1.5 0 0 1 12.720616,6.3638486 5,5 0 0 1 10.5,12.330127 5,5 0 0 1 10.424574,12.371369 1.5,1.5 0 0 1 9.7009365,13.946116 1.5,1.5 0 0 1 7.6518981,13.397078 1.5,1.5 0 0 1 7.4869461,12.966834 5,5 0 0 1 3.6698729,10.500004 Z M 4.5358982,10 a 4,4 0 0 0 3.073601,1.975979 1.5,1.5 0 0 1 0.591463,-0.627903 1.5,1.5 0 0 1 0.054382,-0.02689 L 7.8906128,8.7870981 A 1.5,1.5 0 0 1 6.8839748,8.0669875 1.5,1.5 0 0 1 7.0439455,6.3440649 L 6.4560548,5.3258082 A 1.5,1.5 0 0 1 5.2963922,5.0594017 4,4 0 0 0 4.5358982,10 Z m 4.7084407,1.178696 A 1.5,1.5 0 0 1 9.9202411,11.505639 4,4 0 0 0 10,11.464102 4,4 0 0 0 11.814361,6.8058855 1.5,1.5 0 0 1 10.674192,6.4560546 l -1.0182565,0.587891 a 1.5,1.5 0 0 1 -0.7229226,1.57208 1.5,1.5 0 0 1 -0.054391,0.026888 L 9.2443389,11.178696 Z M 7.909971,5.8440652 A 1.5,1.5 0 0 1 9.1559353,6.1779203 L 10.174192,5.5900291 A 1.5,1.5 0 0 1 10.276654,4.7167192 4,4 0 0 0 7.6726686,4.018983 1.5,1.5 0 0 1 7.3220766,4.8258062 l 0.5878943,1.0182589 z"/>
</svg>
